src/components/content/Icon/functional/theory-of-change.svg

<svg width="100" height="100" viewBox="0 0 100 100" fill="none" xmlns="http://www.w3.org/2000/svg">
<path d="M73.544 36.964C74.868 35.596 75.614 33.806 75.644 31.894C75.676 29.9 74.93 28.01 73.542 26.578C72.154 25.144 70.292 24.338 68.296 24.306C66.588 24.274 64.92 24.84 63.582 25.884C63.3731 26.0474 63.2375 26.2869 63.2049 26.55C63.1723 26.8132 63.2453 27.0786 63.408 27.288C63.5714 27.4969 63.8109 27.6325 64.074 27.6651C64.3372 27.6977 64.6026 27.6247 64.812 27.462C65.806 26.686 66.996 26.292 68.262 26.308C69.722 26.332 71.086 26.922 72.104 27.972C73.122 29.022 73.666 30.404 73.644 31.864C73.622 33.324 73.03 34.688 71.98 35.706C70.93 36.722 69.544 37.264 68.088 37.246C66.628 37.222 65.264 36.632 64.246 35.582C63.228 34.532 62.684 33.15 62.706 31.69C62.718 31 62.854 30.33 63.114 29.698C63.324 29.188 63.08 28.602 62.57 28.392C62.06 28.182 61.474 28.426 61.264 28.936C60.908 29.8 60.722 30.714 60.706 31.656C60.674 33.65 61.42 35.54 62.808 36.972C64.196 38.406 66.058 39.212 68.054 39.244H68.178C69.524 39.244 70.818 38.888 71.952 38.222C77.27 47.994 75.554 60.134 67.618 68.07C64.232 71.456 59.986 73.796 55.338 74.838C50.8171 75.8523 46.1045 75.6061 41.714 74.126C41.4626 74.0415 41.1879 74.0602 40.9502 74.1779C40.7125 74.2956 40.5312 74.5028 40.446 74.754C40.27 75.278 40.55 75.844 41.074 76.022C43.896 76.974 46.84 77.454 49.792 77.454C51.794 77.454 53.8 77.234 55.774 76.792C60.792 75.666 65.378 73.14 69.032 69.486C77.68 60.838 79.486 47.568 73.544 36.968V36.964Z" fill="#0B301A"/>
<path d="M47.608 45.232C48.114 45.012 48.346 44.422 48.124 43.916C47.902 43.41 47.314 43.178 46.808 43.4C45.952 43.774 45.18 44.3 44.514 44.966C43.104 46.376 42.326 48.252 42.326 50.248C42.326 52.244 43.102 54.118 44.514 55.53C45.924 56.94 47.8 57.718 49.796 57.718C51.792 57.718 53.666 56.942 55.078 55.53C56.488 54.12 57.266 52.244 57.266 50.248C57.266 48.252 56.49 46.378 55.078 44.966C53.8708 43.7617 52.2892 43.0048 50.594 42.82C50.4634 42.8057 50.3313 42.8174 50.2052 42.8543C50.0791 42.8913 49.9616 42.9528 49.8594 43.0353C49.7572 43.1178 49.6723 43.2197 49.6096 43.3352C49.5469 43.4506 49.5076 43.5773 49.494 43.708C49.4799 43.8386 49.4916 43.9706 49.5286 44.0967C49.5656 44.2227 49.6272 44.3401 49.7097 44.4423C49.7922 44.5445 49.894 44.6294 50.0094 44.6922C50.1248 44.7549 50.2514 44.7943 50.382 44.808C51.636 44.942 52.77 45.486 53.664 46.378C54.698 47.412 55.266 48.784 55.266 50.246C55.266 51.708 54.698 53.08 53.664 54.114C52.632 55.148 51.258 55.716 49.796 55.716C48.334 55.716 46.962 55.148 45.928 54.114C44.894 53.08 44.326 51.708 44.326 50.246C44.326 48.784 44.894 47.412 45.928 46.378C46.4101 45.8936 46.9794 45.5048 47.606 45.232H47.608Z" fill="#0B301A"/>
<path d="M31.894 60.85C30.3515 60.79 28.8292 61.216 27.542 62.068C22.354 52.33 24.1 40.302 31.982 32.42C35.368 29.034 39.614 26.694 44.262 25.652C48.788 24.636 53.498 24.884 57.886 26.364C58.1374 26.4485 58.4121 26.4298 58.6498 26.3121C58.8875 26.1943 59.0688 25.9872 59.154 25.736C59.33 25.212 59.05 24.646 58.526 24.468C53.789 22.8695 48.7038 22.6039 43.826 23.7C38.808 24.826 34.222 27.352 30.568 31.006C21.95 39.624 20.126 52.834 25.998 63.418C24.874 64.706 24.232 66.328 24.172 68.06C24.104 70.054 24.814 71.956 26.176 73.414C27.538 74.872 29.386 75.714 31.38 75.782C33.0838 75.839 34.756 75.3126 36.12 74.29C36.225 74.2111 36.3134 74.1123 36.3802 73.9993C36.447 73.8862 36.4909 73.7611 36.5093 73.631C36.5277 73.501 36.5202 73.3686 36.4874 73.2415C36.4546 73.1143 36.397 72.9949 36.318 72.89C36.2391 72.785 36.1404 72.6965 36.0273 72.6297C35.9142 72.5629 35.7891 72.5191 35.6591 72.5007C35.529 72.4823 35.3966 72.4897 35.2695 72.5226C35.1423 72.5554 35.0229 72.613 34.918 72.692C33.91 73.45 32.706 73.826 31.446 73.782C29.986 73.732 28.632 73.116 27.636 72.048C26.64 70.98 26.118 69.588 26.168 68.128C26.214 66.796 26.732 65.552 27.634 64.588C27.688 64.568 27.744 64.544 27.796 64.512C27.9708 64.4086 28.1092 64.2534 28.192 64.068C29.216 63.236 30.492 62.806 31.822 62.852C33.282 62.902 34.636 63.518 35.632 64.586C36.628 65.654 37.15 67.046 37.1 68.506C37.076 69.196 36.926 69.862 36.656 70.49C36.436 70.996 36.67 71.586 37.176 71.804C37.682 72.024 38.272 71.79 38.49 71.284C38.862 70.428 39.066 69.516 39.098 68.576C39.24 64.46 36.006 60.996 31.89 60.854L31.894 60.85Z" fill="#0B301A"/>
</svg>

<svg xmlns="http://www.w3.org/2000/svg" width="100" height="100" fill="none" viewBox="0 0 100 100"><path fill="#0b301a" d="M73.544 36.964a7.42 7.42 0 0 0 2.1-5.07 7.42 7.42 0 0 0-2.102-5.316 7.42 7.42 0 0 0-5.246-2.272 7.45 7.45 0 0 0-4.714 1.578 1.002 1.002 0 0 0 .492 1.781c.263.033.529-.04.738-.203a5.43 5.43 0 0 1 3.45-1.154 5.44 5.44 0 0 1 3.842 1.664 5.43 5.43 0 0 1 1.54 3.892 5.43 5.43 0 0 1-1.664 3.842 5.47 5.47 0 0 1-3.892 1.54 5.44 5.44 0 0 1-3.842-1.664 5.43 5.43 0 0 1-1.54-3.892 5.5 5.5 0 0 1 .408-1.992 1.002 1.002 0 0 0-1.85-.762 7.4 7.4 0 0 0-.558 2.72 7.42 7.42 0 0 0 2.102 5.316 7.42 7.42 0 0 0 5.246 2.272h.124c1.346 0 2.64-.356 3.774-1.022 5.318 9.772 3.602 21.912-4.334 29.848a25.1 25.1 0 0 1-12.28 6.768 25.3 25.3 0 0 1-13.624-.712 1 1 0 0 0-1.268.628c-.176.524.104 1.09.628 1.268a27.27 27.27 0 0 0 14.7.77 27.13 27.13 0 0 0 13.258-7.306c8.648-8.648 10.454-21.918 4.512-32.518z"/><path fill="#0b301a" d="M47.608 45.232a.999.999 0 1 0-.8-1.832c-.856.374-1.628.9-2.294 1.566a7.42 7.42 0 0 0-2.188 5.282c0 1.996.776 3.87 2.188 5.282a7.42 7.42 0 0 0 5.282 2.188c1.996 0 3.87-.776 5.282-2.188a7.42 7.42 0 0 0 2.188-5.282c0-1.996-.776-3.87-2.188-5.282a7.5 7.5 0 0 0-4.484-2.146.998.998 0 0 0-.884 1.622 1 1 0 0 0 .672.366 5.4 5.4 0 0 1 3.282 1.57 5.43 5.43 0 0 1 1.602 3.868 5.43 5.43 0 0 1-1.602 3.868 5.43 5.43 0 0 1-3.868 1.602 5.43 5.43 0 0 1-3.868-1.602 5.43 5.43 0 0 1-1.602-3.868 5.43 5.43 0 0 1 1.602-3.868 5.4 5.4 0 0 1 1.678-1.146z"/><path fill="#0b301a" d="M31.894 60.85a7.37 7.37 0 0 0-4.352 1.218 25.17 25.17 0 0 1 4.44-29.648 25.1 25.1 0 0 1 12.28-6.768 25.3 25.3 0 0 1 13.624.712 1 1 0 0 0 1.268-.628 1 1 0 0 0-.628-1.268 27.27 27.27 0 0 0-14.7-.768 27.13 27.13 0 0 0-13.258 7.306c-8.618 8.618-10.442 21.828-4.57 32.412a7.4 7.4 0 0 0-1.826 4.642 7.42 7.42 0 0 0 2.004 5.354 7.42 7.42 0 0 0 5.204 2.368 7.5 7.5 0 0 0 4.74-1.492 1 1 0 1 0-1.202-1.598 5.4 5.4 0 0 1-3.472 1.09 5.43 5.43 0 0 1-3.81-1.734 5.44 5.44 0 0 1-1.468-3.92 5.43 5.43 0 0 1 1.466-3.54.98.98 0 0 0 .558-.52 5.43 5.43 0 0 1 3.63-1.216 5.43 5.43 0 0 1 3.81 1.734 5.44 5.44 0 0 1 1.468 3.92 5.5 5.5 0 0 1-.444 1.984.999.999 0 1 0 1.834.794 7.4 7.4 0 0 0 .608-2.708c.142-4.116-3.092-7.58-7.208-7.722z"/></svg>
